front/src/Assets/image/payment/Mastercard.svg

<svg width="47" height="28" viewBox="0 0 47 28" fill="none" xmlns="http://www.w3.org/2000/svg">
<path fill-rule="evenodd" clip-rule="evenodd" d="M23.3685 24.3601C20.9307 26.3978 17.7686 27.6279 14.3132 27.6279C6.60316 27.6279 0.352943 21.5035 0.352943 13.9487C0.352943 6.3939 6.60316 0.269531 14.3132 0.269531C17.7686 0.269531 20.9307 1.49963 23.3685 3.5373C25.8062 1.49963 28.9684 0.269531 32.4238 0.269531C40.1338 0.269531 46.384 6.3939 46.384 13.9487C46.384 21.5035 40.1338 27.6279 32.4238 27.6279C28.9684 27.6279 25.8062 26.3978 23.3685 24.3601Z" fill="#ED0006"/>
<path fill-rule="evenodd" clip-rule="evenodd" d="M23.3685 24.3601C26.3701 21.8511 28.2734 18.1177 28.2734 13.9487C28.2734 9.7797 26.3701 6.0463 23.3685 3.53729C25.8062 1.49962 28.9684 0.269531 32.4237 0.269531C40.1338 0.269531 46.384 6.3939 46.384 13.9487C46.384 21.5035 40.1338 27.6279 32.4237 27.6279C28.9684 27.6279 25.8062 26.3978 23.3685 24.3601Z" fill="#F9A000"/>
<path fill-rule="evenodd" clip-rule="evenodd" d="M23.3685 24.36C26.3701 21.851 28.2734 18.1177 28.2734 13.9487C28.2734 9.77974 26.3701 6.04636 23.3685 3.53735C20.3669 6.04636 18.4636 9.77974 18.4636 13.9487C18.4636 18.1177 20.3669 21.851 23.3685 24.36Z" fill="#FF5E00"/>
</svg>

<svg xmlns="http://www.w3.org/2000/svg" fill="none" viewBox="0 0 47 28">
  <path fill="#ED0006" fill-rule="evenodd" d="M23.369 24.36a14.075 14.075 0 01-9.056 3.268c-7.71 0-13.96-6.125-13.96-13.68C.353 6.395 6.603.27 14.313.27a14.08 14.08 0 019.056 3.267A14.075 14.075 0 0132.424.27c7.71 0 13.96 6.124 13.96 13.679 0 7.554-6.25 13.679-13.96 13.679a14.07 14.07 0 01-9.055-3.268z" clip-rule="evenodd"/>
  <path fill="#F9A000" fill-rule="evenodd" d="M23.369 24.36c3.001-2.509 4.904-6.242 4.904-10.411 0-4.17-1.903-7.903-4.904-10.412A14.075 14.075 0 0132.424.27c7.71 0 13.96 6.124 13.96 13.679 0 7.554-6.25 13.679-13.96 13.679a14.07 14.07 0 01-9.055-3.268z" clip-rule="evenodd"/>
  <path fill="#FF5E00" fill-rule="evenodd" d="M23.369 24.36c3.001-2.509 4.904-6.242 4.904-10.411 0-4.17-1.903-7.903-4.904-10.412-3.002 2.51-4.905 6.243-4.905 10.412 0 4.169 1.903 7.902 4.905 10.411z" clip-rule="evenodd"/>
</svg>
